packages/core/src/svgs/tokens/mono/GMPD.svg

<svg width="24" height="24" viewBox="0 0 24 24" fill="none" xmlns="http://www.w3.org/2000/svg">
<path d="M22 7.12817H6.82564L2 8.66663H9.39487L5.95897 16.8717H18.2667L20.6256 11.2307H13.5076L12.8615 12.7692H18.2308L17.1539 15.3333H8.35897L11.1487 8.66663H21.3538L22 7.12817Z" fill="white"/>
</svg>

<svg xmlns="http://www.w3.org/2000/svg" width="24" height="24" fill="none" viewBox="0 0 24 24">
    <path fill="#fff" d="M22 7.128H6.826L2 8.667h7.395l-3.436 8.205h12.308l2.359-5.641h-7.118l-.646 1.538h5.369l-1.077 2.564H8.359l2.79-6.666h10.205z"/>
</svg>
